!!!COM: Victor Masse/
!!!CNT: Francais
!!!TXO: Francais
!!!OTL: La Chanson de la Gerbe
!!!LYR: (Poe/sie Populaire)
!!!OPR: Chants Bretons
!!!ENC: Jacob Pegg
!!!YOR: Romantic French Song 1830-1870 -David Tunley, ed.,
!!!YOR: New York: Garland Publishing, Inc., 1995, Vol. 4
!!!ODT: 1853/
!!NB: Vocal melody and text only encoded.
!!NB: First instance of melodic material only encoded.
**kern	**silbe
*clef G2	*
*k[f#]	*
*M4/4	*
=1	=1
4r	.
{8g	{Voi-
8b	-la\
8dd	la
8b	saint~
8cc	~Jean
8a	pas-
=2	=2
[4.b	-se/-
(32b]	|
32cc	|
32dd	|
32b	|
2g)}	-e;}
=3	=3
4r	.
{8g	{Le
8b	mois
8dd	d'Aou^t
8b	est
8cc	ap-
8a	-pro-
=4	=4
[2b	-chant
4b]}	|}
4r	.
=5	=5
4r	.
{8a	{Ou\
8b	tous
8cc	gar-
8b	-c5ons
8a	des
8b	vil-
=6	=6
[4.g	-la-
(32g]	|
32a	|
32b	|
32g	|
2d)}	-ges}
=7	=7
4r	.
{8a	{S'en
8b	vont
8cc	la
8b	ger-
8a	-be
8b	bat-
=8	=8
[2g	-tant,
4g]}	|}
4r	.
=9	=9
4r	.
{8a	{S'en
8b	vont
8a	la
8g	ger-
8f#	-be
8e	bat-
=10	=10
4d}	-tant.}
{[2.dd	{ho!
=11	=11
4dd]	|
8g	ho!
8d	bat-
8g	-teux!
8d	bat-
8g	-tons
8a	la
=12	=12
8g	ger-
8d	-be,
8g	Com-
8a	-pa-
8cc	-gnons
8b	joy-
8a	-eu-
8g	-se-
=13	=13
4a}	-ment!}
{8a	{Ho!
8e	bat-
8a	-teux!
8e	bat-
8a	-tons
8b	la
=14	=14
8a	ger-
8e	-be,
8a	Com-
8b	-pa-
8dd	-gnons
8cc	joy-
8b	-eu-
8a	-se-
=15	=15
[1dd	-ment!
=16	=16
4dd]}	|}
{8dd	{Com-
8ee	-pa-
8dd	-gnons
8g	joy-
(16bq	|
16ccq	|
8b;)	-eu-
8a	-se-
=17	=17
[2g	-ment!
4g]}	|}
4r	.
*-	*-
